X: 447
T: Wangleni renyang wangbuliao hua
L: 1/8
M: 2/4
K: D
e ee2 [I:setbarnb 1]| 
ef2e | 
d2B F | 
E4 | 
e e e e | 
e f/ f/ f e | 
d2e2 | 
e dB2 |]

@@@ Tune index: 9321
